symbolic/22x22/actions/document-export.svg

<svg xmlns="http://www.w3.org/2000/svg" width="22" height="22"><defs><style id="current-color-scheme" type="text/css"></style></defs><path style="fill:currentColor;color:#323a41" d="M3 1S2 1 2 2v12c0 1 1 1 1 1h10c1 0 1-1 1-1V9.75L12 11v2H4V3h8v2l2 1.25V2c0-1-1-1-1-1zm7 4v2H6v2h4v2l4.5-3z" transform="translate(3 3)"/></svg>

<svg xmlns="http://www.w3.org/2000/svg" width="22" height="22" version="1.1">
 <defs>
  <style id="current-color-scheme" type="text/css">
   .ColorScheme-Text { color:#323a41; } .ColorScheme-Highlight { color:#4285f4; } .ColorScheme-NeutralText { color:#ff9800; } .ColorScheme-PositiveText { color:#4caf50; } .ColorScheme-NegativeText { color:#f44336; }
  </style>
 </defs>
 <g transform="translate(3,3)">
  <path style="fill:currentColor" class="ColorScheme-Text" d="M 3,1 C 3,1 2,1 2,2 V 14 C 2,15 3,15 3,15 H 13 C 14,15 14,14 14,14 V 9.75 L 12,11 V 13 H 4 V 3 H 12 V 5 L 14,6.25 V 2 C 14,1 13,1 13,1 Z M 10,5 V 7 H 6 V 9 H 10 V 11 L 14.5,8 Z"/>
 </g>
</svg>
